!!!COM: Folklore Acadien; arr. Charles-Émile Gadbois
!!!PTL@@FR: Les 100 plus belles chansons
!!!OTL@@FR: Partons, la mer est belle!
!!!PUB: La Bonne Chanson, inc.
!!!YEM: On ne peut reproduire, enregistrer ou diffuser en tout ou en partie le présent ouvrage, sous quelque procédé que ce soit, électronique, mécanique, photographique, sonore, magnétique ou autre, sans avoir obtenu au préalable l'autorisation écrite de l'éditrice.
!!!PDT: 2011
!!!SMA: 2012 Bibliothèque nationale du Québec; Biblothèque nationale du Canada
!!!AGN-Laforte: Chanson strophique (avec refrain), 8:6
!!!AGN-type: Chanson de marin
!!!AGN-rime: mixte (v1:e,v2:c,v3:c)
**kern	**text	**text	**text
*clefG2	*	*	*
*k[b-e-]	*	*	*
*B-:	*	*	*
*M6/8	*	*	*
*	*v:1	*v:2	*v:3
*	*pline:1	*pline:9	*pline:17
{8r	.	.	.
8f	A-	Ain-	Je
=1	=1	=1	=1
4f	-mis	-si	n'ai
8g	par-	chan-	plus
4f	-tons	-tait	que
8g	sans	mon	ma
=2	=2	=2	=2
!ties replaced by dotted slur to accommodate different endings	!	!	!
!LO:S:dot	!	!	!
(4.f	bruit;	pè-	mè-
8f)	.	-re,	-re,
8r}	.	.	.
*	*rp:i	*rp:ɛ	*rp:ɛ
*	*rf:ɥi	*rf:ɛʁ,ə	*rf:ɛʁ,ə
*	*rs:a	*rs:e	*rs:e
*	*pline:2	*pline:10	*pline:18
{8dd	La	Lors-	Qui
!!LO:PB:g=original
=3	=3	=3	=3
4dd	pê-	-qu'il	ne
8cc	-che	quit-	pos-
4cc	se-	-ta	-sè-
8b-	-ra	le	-de
=4	=4	=4	=4
!Added dotted slur to accommodate different endings	!	!	!
!LO:S:dot	!	!	!
(4.b-	bon-	port.	rien;
8b-)	-ne,	.	.
8r}	.	.	.
*	*rp:ɔ	*rp:ɔ	*rp:ẽ
*	*rf:ɔn,ə	*rp:ɔʁ	*rf:jẽ
*	*rs:b	*rs:c	*rs:h
*	*pline:3	*pline:11	*pline:19
{8dd	La	Il	Elle
=5	=5	=5	=5
4b-	lu-	ne	est
8b-	-ne	s'at-	dans
4f	qui	-ten-	la
8f	ray-	-dait	mi-
!!LO:PB:g=original
=6	=6	=6	=6
4.g	-on-	guè-	-sè-
8g	-ne	-re	-re,
8r}	.	.	.
*	*rp:ɔ	*rp:ɛ	*rp:ɛ
*	*rf:ɔn,ə	*rf:ɛʁ,ə	*rp:ɛ
*	*rs:b	*rs:e	*rs:e
*	*pline:4	*pline:12	*pline:20
{8cc	É-	À	Je
=7	=7	=7	=7
4a	clai-	y	suis
8a	-re-	trou-	son
(8a	-ra	-ver	seul
8g)	.	.	.
8f	la	la	sou-
=8	=8	=8	=8
[4.b-	nuit.	mort.	-tien.
8b-]	.	.	.
8r}	.	.	.
*	*rp:i	*rp:ɔ	*rp:ẽ
*	*rf:ɥi	*rp:ɔʁ	*rf:jẽ
*	*rs:a	*rs:c	*rs:h
*	*pline:5	*pline:13	*pline:21
{8d	Il	Par	Ra-
!!LO:PB:g=original
=9	=9	=9	=9
4f	faut	les	-mons,
8d	qu'a-	vents,	ra-
4f	-vant	par	-mons
8b-	l'au-	l'o-	bien
=10	=10	=10	=10
(4dd	-ro-	-ra-	vi-
8cc)	.	.	.
8b-	-re	-ge,	-te,
8r}	.	.	.
*	*rp:ɔ	*rp:a	*rp:i
*	*rf:ɔʁ,ə	*rf:ʁaʒ,ə	*rf:vit,ə
*	*rs:c	*rs:f	*rs:i
*	*pline:6	*pline:14	*pline:22
{8f	Nous	Il	Je
=11	=11	=11	=11
4g	soy-	fut	l'a-
8g	-ons	sur-	-per-
(8b-	de	-pris	-çois
8a)	.	.	.
8g	re-	sou-	là-
!!LO:PB:g=original
=12	=12	=12	=12
[4.f	-tour,	-dain:	-bas,
8f]	.	.	.
8r}	.	.	.
*	*rp:u	*rp:ẽ	*rs:ɑ
*	*rf:uʁ	*rf:ẽ	*rf:a
*	*rs:d	*rs:g	*rs:j
*	*pline:7	*pline:15	*pline:23
{8dd	Pour	Et	Je
=13	=13	=13	=13
4b-	som-	d'un	la
8b-	-meil-	cru-	vois
4f	-ler	el	qui
8f	en-	nau-	m'in-
=14	=14	=14	=14
4.g	-co-	-fra-	-vi-
8g	-re	ge	-te
8r}	.	.	.
*	*rp:ɔ	*rp:a	*rp:i
*	*rf:ɔʁ,ə	*rf:ʁaʒ,ə	*rf:vit,ə
*	*rs:c	*rs:f	*rs:i
*	*pline:8	*pline:16	*pline:24
{8cc	A-	Il	En
!!LO:PB:g=original
=15	=15	=15	=15
4a	-vant	su-	me
8a	qu'il	-bit	ten-
(8a	soit	le	-dant
8g)	.	.	.
8f	grand	des-	les
=16	=16	=16	=16
[4.b-	jour.	-tin.	bras.
8b-]	.	.	.
8r}	.	.	.
*	*rp:u	*rp:ẽ	*rp:a
*	*rf:uʁ	*rf:ẽ	*rf:a
*	*rs:d	*rs:g	*rs:j
=||!	=||!	=||!	=||!
*>Refrain	*>Refrain	*>Refrain	*>Refrain
!!LO:TX:a:B:t=Refrain
*	*pline:R1	*	*
{8d	Par-	.	.
=17	=17	=17	=17
4f	tons,	.	.
8d	la	.	.
4f	mer	.	.
8b-	est	.	.
!!LO:PB:g=original
=18	=18	=18	=18
(4dd	bel-	.	.
8cc)	.	.	.
8b-	-le;	.	.
8r}	.	.	.
*	*rp:ɛ	*	*
*	*rf:ɛl,ə	*	*
*	*rs:Ra	*	*
*	*pline:R2	*	*
{8f	Em-	.	.
=19	=19	=19	=19
4g	-bar-	.	.
8g	-quons	.	.
(8b-	nous	.	.
8a)	.	.	.
8g	pê-	.	.
=20	=20	=20	=20
[4.f	-cheurs,	.	.
8f]	.	.	.
8r}	.	.	.
*	*rp:œ	*	*
*	*rf:œʁ	*	*
*	*rs:Rb	*	*
*	*pline:R3	*	*
{8f	Gui-	.	.
!!LO:PB:g=original
=21	=21	=21	=21
4dd	dons	.	.
8dd	no-	.	.
4dd	-tre	.	.
8dd	na-	.	.
=22	=22	=22	=22
(8dd	-cel-	.	.
8cc	.	.	.
8dd)	.	.	.
8ee-	-le,	.	.
8r}	.	.	.
*	*rp:ɛ	*	*
*	*rf:ɛl,ə	*	*
*	*rs:Ra	*	*
*	*pline:R4	*	*
{8f	Ra-	.	.
=23	=23	=23	=23
4cc	-mons	.	.
8cc	a-	.	.
4cc	-vec	.	.
8ff	ar-	.	.
!!LO:PB:g=original
=24	=24	=24	=24
[4.dd	-deur.	.	.
8dd]	.	.	.
8r}	.	.	.
*	*rp:œ	*	*
*	*rf:œʁ	*	*
*	*rs:Rb	*	*
*	*pline:R5	*	*
{8f	Aux	.	.
=25	=25	=25	=25
(8f	mâts	.	.
8b-)	.	.	.
8g	his-	.	.
(8f	-sons	.	.
8b-)	.	.	.
8g	les	.	.
=26	=26	=26	=26
(4f	voi-	.	.
8e-)	.	.	.
8d	-les,	.	.
8r}	.	.	.
*	*rp:a	*	*
*	*rf:al	*	*
*	*rs:Rc	*	*
*	*pline:R6	*	*
{8f	Le	.	.
!!LO:PB:g=original
=27	=27	=27	=27
4g	ciel	.	.
8g	est	.	.
4ee-	pur	.	.
8ee-	et	.	.
=28	=28	=28	=28
[4.dd	beau;	.	.
8dd]	.	.	.
8r}	.	.	.
*	*rp:o	*	*
*	*rf:o	*	*
*	*rs:Rd	*	*
*	*pline:R7	*	*
{8f	Je	.	.
=29	=29	=29	=29
4dd	vois	.	.
8dd	bril-	.	.
4dd	-ler	.	.
8dd	l'é-	.	.
!!LO:PB:g=original
=30	=30	=30	=30
(8dd	-toi-	.	.
8cc	.	.	.
8dd)	.	.	.
8ee-	-le	.	.
8r}	.	.	.
*	*rp:a	*	*
*	*rf:al	*	*
*	*rs:Rc	*	*
*	*pline:R8	*	*
{8f	Qui	.	.
=31	=31	=31	=31
4cc	gui-	.	.
8cc	-de	.	.
8cc	les	.	.
8dd	ma-	.	.
8cc	-te	.	.
=32	=32	=32	=32
[4.b-	-lots!	.	.
8b-]}	.	.	.
*	*rp:o	*	*
*	*rf:o	*	*
*	*rs:Rd	*	*
==	==	==	==
*-	*-	*-	*-
!!!EED: Ève Poudrier
!!!EEV: 2025/May/05
